/* XPM */
static char *inscreen_xpm[] = {
"32 32 2 1",
". c #020402",
"+ c #45FF1A",
"................................",
"................................",
"............++++++++............",
"..........++++++++++++..........",
"..........++++++++++++..........",
"..........++++++++++++..........",
"..........++++++++++++..........",
"..........++++++++++++..........",
"..........++++++++++++..........",
"..........++++++++++++..........",
"..........++++++++++++..........",
"..........++++++++++++..........",
"..........++++++++++++..........",
"..........++++++++++++..........",
"..........++++++++++++..........",
"..........++++++++++++..........",
"........+..++++++++++..+........",
"........+...++++++++...+........",
"........+..............+........",
"........+..............+........",
"........++............++........",
".........++..........++.........",
"..........+++......+++..........",
"...........++++++++++...........",
".............++++++.............",
"...............++...............",
"...............++...............",
"...........++++++++++...........",
"..........++++++++++++..........",
"................................",
"................................",
"................................"};
